!!!COM: Palestrina, Giovanni Perluigi da
!!!OPR: De feria
!!!OTL: Benedictus
**kern	**kern	**kern
*Ibass	*Icalto	*Icant
!Bassus	!Altus	!Cantus
*clefF4	*clefG2	*clefG2
*k[]	*k[]	*k[]
*E:phr	*E:phr	*E:phr
*M4/2	*M4/2	*M4/2
=1	=1	=1
0r	0A	0r
=2	=2	=2
0r	1A	0r
.	1d	.
=3	=3	=3
0r	2c	0e
.	2A	.
.	2.c	.
.	4B	.
=4	=4	=4
0r	2A	1e
.	2G	.
.	1F	1a
=5	=5	=5
0r	4E	2g
.	4F	.
.	4G	2e
.	4A	.
.	4B	2.g
.	4G	.
.	[2c	.
.	.	4f
=6	=6	=6
0E	2c]	2e
.	2.B	2d
.	.	1c
.	4A	.
.	[2A	.
=7	=7	=7
1E	2A]	1B
.	2G#	.
1A	2A	2c
.	2c	2e
=8	=8	=8
2G	2B	2.g
2E	1c	.
.	.	4f
2.G	.	2e
.	2B	2d
4F	.	.
=9	=9	=9
2E	2c	2e
2D	2.B	2f
1C	.	1e
.	4A	.
.	[2A	.
=10	=10	=10
1BB	2A]	1r
.	2G#	.
2AA	1A	[1e
2A	.	.
=11	=11	=11
2.c	2r	1e]
.	2A	.
4B	.	.
2A	2c	1e
2G	2B	.
=12	=12	=12
1F	4A	1a
.	4B	.
.	4c	.
.	4d	.
1E	4e	2g
.	4f	.
.	2g	2e
=13	=13	=13
0r	2e	2.cc
.	1f	.
.	.	4b
.	.	2a
.	[2e	2g
=14	=14	=14
1r	2e]	1f
.	2d	.
[1E	2c	2.e
.	4B	.
.	4A	4f
=15	=15	=15
1E]	2B	2g
.	2c	1a
1E	1B	.
.	.	2g
=16	=16	=16
1A	2A	1cc
.	2e	.
2G	2.g	1b
2E	.	.
.	4f	.
=17	=17	=17
2.c	4e	2r
.	4d	.
.	2e	2g
4B	.	.
2A	2c	2cc
2G	[2d	[2b
=18	=18	=18
1F	4d]	4b]
.	4c	4a
.	2A	1a
1E	1B	.
.	.	2g#
=19	=19	=19
2r	1A	0a
2A	.	.
2A	2r	.
2A	2e	.
=20	=20	=20
2G	2e	0r
2c	2e	.
2B	2d	.
[2A	2f	.
=21	=21	=21
4A]	2e	1a
4G	.	.
4F	2.d	.
4E	.	.
2F	.	2a
.	4c	.
2F	4c	2a
.	8B	.
.	8A	.
=22	=22	=22
2.E	2B	2g
.	2e	2cc
4F	.	.
2G	2.d	2b
[2F	.	[2a
.	4c	.
=23	=23	=23
4F]	4A	4a]
4E	4B	4g
4D	1c	4f
4C	.	4e
2D	.	2f
2D	2B	2f
=24	=24	=24
1C	0c	[0e
2r	.	.
2E	.	.
=25	=25	=25
2E	2r	1e]
2E	2B	.
1D	2B	1r
.	2B	.
=26	=26	=26
2F	2A	1r
2.E	2c	.
.	2B	2r
4D	.	.
4C	[2A	2e
4BB	.	.
=27	=27	=27
1C	4A]	2e
.	4G	.
.	4G	2e
.	8F	.
.	8E	.
1D	4F	2d
.	4G	.
.	4A	2f
.	4B	.
=28	=28	=28
2C	2c	2e
2G	2.B	2.d
2A	.	.
.	4A	4c
2A	[2A	2c
=29	=29	=29
1E	2A]	2B
.	2G#	2B
2r	1A	2.c
2A	.	.
.	.	4d
=30	=30	=30
2A	2r	1e
2A	2e	.
2G	2e	1r
2c	2e	.
=31	=31	=31
2B	2d	1r
2.A	2.f	.
.	.	1a
4G	4e	.
4F	[2e	.
4E	.	.
=32	=32	=32
2F	2e]	2a
2F	2d	2a
2.E	[1e	2g
.	.	2cc
4F	.	.
=33	=33	=33
2G	1e]	2b
2A	.	2.a
1D	2r	.
.	.	4g
.	2d	4f
.	.	4e
=34	=34	=34
2r	2d	2f
2D	2d	2f
2A	1c	2e
2A	.	2f
=35	=35	=35
1F	1f	2a
.	.	2a
1G	2e	2g
.	[2d	[2b
=36	=36	=36
2A	4d]	4b]
.	4c	4a
2F	4c	1a
.	8B	.
.	8A	.
1E	2B	.
.	2B	2g#
=37	=37	=37
0AA	0A	0a
*-	*-	*-
!! Hosanna
**kern	**kern	**kern	**kern
*Ibass	*Itenor	*Icalto	*Icant
!Bassus	!Tenor	!Altus	!Cantus
*clefF4	*clefGv2	*clefG2	*clefG2
*k[]	*k[]	*k[]	*k[]
*E:phr	*E:phr	*E:phr	*E:phr
*M4/2	*M4/2	*M4/2	*M4/2
=38	=38	=38	=38
0A	2.A	1r	0e
.	4B	.	.
.	4c	[1e	.
.	4d	.	.
.	[2c	.	.
=39	=39	=39	=39
0E	2c]	1e]	0g
.	4B	.	.
.	4A	.	.
.	1B	1e	.
=40	=40	=40	=40
1F	1A	1c	0a
1D	2.f	2.d	.
.	4e	4e	.
=41	=41	=41	=41
1D	4d	4f	[0a
.	4c	4g	.
.	1d	1f	.
1A	.	.	.
.	4c	4e	.
.	4B	4d	.
=42	=42	=42	=42
1AA	1c	1e	0a]
2.D	1d	2.f	.
4E	.	8e	.
.	.	8d	.
=43	=43	=43	=43
4F	2.A	1c	0a
4G	.	.	.
1F	.	.	.
.	4B	.	.
.	4c	1A	.
.	4d	.	.
4E	[2c	.	.
4D	.	.	.
=44	=44	=44	=44
1E	2c]	1r	0g
.	4B	.	.
.	4A	.	.
1r	1B	2.d	.
.	.	4e	.
=45	=45	=45	=45
2.D	1A	4f	2.a
.	.	4g	.
.	.	1f	.
4E	.	.	4g
4F	2.A	.	4a
4G	.	.	4b
[2A	.	4e	[2cc
.	4B	4d	.
=46	=46	=46	=46
2A]	2c	2e	2cc]
4G	2d	1g	4b
4F	.	.	4a
2E	2e	.	2cc
2G	2B	2d	[2b
=47	=47	=47	=47
2F	2c	1f	4b]
.	.	.	4a
2D	2d	.	1a
1E	1B	1e	.
.	.	.	2g#
=48	=48	=48	=48
1AA	1A	2r	[0a
.	.	2e	.
2.D	1r	2f	.
.	.	2d	.
4E	.	.	.
=49	=49	=49	=49
4F	2.A	1c	1a_
4G	.	.	.
1F	.	.	.
.	4B	.	.
.	2c	1f	1a_
4E	[2d	.	.
4D	.	.	.
=50	=50	=50	=50
1A	2d]	1e	0a]
.	2c	.	.
1D	2.f	2.d	.
.	4e	4e	.
=51	=51	=51	=51
1D	4d	4f	[0a
.	4c	4g	.
.	1d	1f	.
1A	.	.	.
.	4c	4e	.
.	4B	4d	.
=52	=52	=52	=52
0AA	0c#	0e	0a]
==	==	==	==
*-	*-	*-	*-
!!!CDT: 1525/^1526/-1594/2/2
!!!OCY: Italia
!!!AGN: Mass (Paraphrase)
!!!AST: renaissance, vocal
!!!ASW: Gregorian Mass
!!!PWK: Masses, Book 3
!!!RNB: Cadence finals: A
!!!YOR: Le Opere Complete, v. 6, p. 84
!!!YOO: Rome, Italy: Fratelli Scalera
!!!END: 1992//
!!!EED: John Miller
!!!YEC: Copyright 2000, John Miller
!!!YEN: United States of America
!!!YEM: Rights to all derivative electronic formats reserved.
!!!YEM: Refer to licensing agreement for further details.
!!!YEM: This file must be accompanied by the licensing agreement.
!!!YEM: A copy of the licensing agreement may be found at http://www.music-cog.ohio-state.edu/HumdrumDatabases/Palestrina/license.txt
!!!EMD: converted to Humdrum by Bret Aarden
